X: 1379
T: An Seanchai Muimhneach
R: jig
M: 6/8
K: Edorian
M:6/8
|:BAB EFE BAF Bcd|BAB EFE BAF F2 E|
BAB EFE BAF Bcd|A2 A dAF AFE F2 E:|
|:gfe fed edB BAF|BAB EFE BAF F2 E|
gfe fed edB BAF|A2 A dAF AFE F2 E:|

